X: 100253
T: THE BANKS OF LOCH NESS -- Strathspey
R: strathspey
B: K\"ohler's Violin Repository, v.3, 1885 p.196 #1
F: http://www.archive.org/details/klersviolinrepos03rugg
Z: 2012 John Chambers <jc:trillian.mit.edu>
M: C|
L: 1/8
K: Gm
uF |\
D<GG>A (B>c)d<f | F<F (F>D) F2 F<B | G<G(G>A) (B>c)d<f | (d/c/)B/A/ B^F G2 G :|
|: uf |\
{e}d>B(f>B) (g>B)d>f | F<F (F>D) F2 F>f | (d>f)(B>d) c>B c<d | G<GG^F G2 Gf |
(d>B) (f>B) (g>B) (f>e) | {e}d>B (c>A) (B>G)FD | {ga}(.b>.a) (g>f) dbaB | (Ae)d^F G2 "_Segue Reel.""^D.C."G |]

%%sep 2 1 500

